X: 28
T:Mr. Gordon of Hallhead
M:4/4
L:1/8
C:Wm Marshall
S:Arr. Barra MacNeils
R:Strathspey
D:"The Traditional Album"
K:G
|:G>D B,>D G/2F/2E/2D/2 B,>D|G2 BG A2 (3ABA|G>DB,D G/2F/2E/2F/2 Gg|dB c
/2B/2A
/2G/2 DG G2:||!
d|:g/2f/2g/2a/2 g2 g/2f/2g/2a/2 g2|e/2f/2g/2a/2 b/2a/2g/2f/2 ea ag/2f/2|
g<b e<g d<g B<G|!
|1cA c/2B/2A/2G/2 DG G2:|2cd c/2B/2A/2G/2 DG G2||
